svgs/sharp-regular/arrow-up-from-square.svg

<svg xmlns="http://www.w3.org/2000/svg" viewBox="0 0 512 512"><!--! Font Awesome Pro 6.6.0 by @fontawesome - https://fontawesome.com License - https://fontawesome.com/license (Commercial License) Copyright 2024 Fonticons, Inc. --><path d="M272.7 18L256 1.7 239.3 18l-112 108.8-17.2 16.7 33.4 34.4 17.2-16.7L232 92l0 260 0 24 48 0 0-24 0-260 71.3 69.2 17.2 16.7 33.4-34.4-17.2-16.7L272.7 18zM24 32L0 32 0 56 0 488l0 24 24 0 464 0 24 0 0-24 0-432 0-24-24 0-72 0-24 0 0 48 24 0 48 0 0 384L48 464 48 80l48 0 24 0 0-48L96 32 24 32z"/></svg>

<svg xmlns="http://www.w3.org/2000/svg" viewBox="0 0 512 512"><!--! Font Awesome Pro 6.4.0 by @fontawesome - https://fontawesome.com License - https://fontawesome.com/license (Commercial License) Copyright 2023 Fonticons, Inc. --><path d="M272.7 18L256 1.7 239.3 18l-112 108.8-17.2 16.7 33.4 34.4 17.2-16.7L232 92V352v24h48V352 92l71.3 69.2 17.2 16.7 33.4-34.4-17.2-16.7L272.7 18zM24 32H0V56 488v24H24 488h24V488 56 32H488 416 392V80h24 48V464H48V80H96h24V32H96 24z"/></svg>
